X: 3
M: C
L: 1/16
K: A
V: 1
E2 |\
c3e {d}c2BA {G}F4 F2E2 | (AB).c.d e2c2 A4 A2 :|
cd |\
eA3Tc3e {d}c2BA TB2cd | eA3c3e | Ta3ec2d2 |\
eA3c3e {d}c2BA TB3c | .A.B.c.d e3c {B}A4 A2cd |
eA3c3e {d}c2BA B2cd | .e2.A2.f2.A2 .g2.A2.a2.f2 |\
eA3c3e {d}c2BA TB3c | .A.B.c.d e3c A4 A2 :|
V: 2 clef=bass middle=d
z2 |\
z2 |\


